X: 54
T: Stomp Dance Song (i) [First rendition]
C: Anon.
%%abc-version 2.0
%%abcx-abcm2ps-target-version 5.9.1 (29 Sep 2008)
%%abc-creator hum2abc beta
%%abcx-conversion-date 2020/08/10 20:56:09
%%abc-copyright Electronic Copyright 2000 David Huron
%%abc-edited-by David Huron
%%abcx-initial-encoding-date August 29, 2000
%%humdrum-veritas 4235230695
%%humdrum-veritas-data 2345275833
%%linebreak <none>
%%barnumbers 0
L: 1/8
M: 2/4
Q: 1/4=66
K: Bb clef=bass
z B,/ G,/ B, B, | 
B,/ G, B,/ G, G, | 
B, G, B, B, | 
B,/ G, B,/ G, G, | 
B,> C B, G,[M:3/4] | 
B, B, G, z G, G, | 
B,> C B, G, B, B,[M:2/4] | 
G,> B, G, G, | 
D> C C B,/ G,/[M:3/4] | 
B, B, G, z G, G,[M:2/4] | 
D/ C C/ C/ B,/ G,[M:3/4] | 
B, B, G, z G, G, | 
C B,/ B,/ B, G, B, B,[M:2/4] | 
G,> B, G, G,[M:3/4] | 
C B,/ B,/ B, G, B, B, | 
G, z G, G, G, z |]  


